assets/tab/tab_playlist.svg

<svg height="20" viewBox="0 0 20 20" width="20" xmlns="http://www.w3.org/2000/svg"><path d="m17.3319825 3.29295049h-14.66396498c-.70898417 0-1.38881399.28217071-1.88939045.78422079-.50057647.50205008-.78072907 1.18268463-.77861519 1.89162697v11.35935375c-.0010499.7082501.27957262 1.3878557.78003363 1.8890397.50046101.5011841 1.17968252.7828083 1.88797201.7828083h14.66396498c.7082895 0 1.387511-.2816242 1.887972-.7828083.500461-.501184.7810835-1.1807896.7800336-1.8890397v-11.35935375c.0021139-.70894234-.2780387-1.38957689-.7786152-1.89162697-.5005764-.50205008-1.1804062-.78422079-1.8893904-.78422079zm-13.90396679 4.25175811c.01725819-.33271549.29909524-.58956564.63199848-.57596723h7.93998101c.3344313-.01586234.6187531.24162259.6359985.57596723v.05599681c-.0255763.3279752-.3074062.57611376-.6359985.55996815h-7.93998101c-.32782914.01605831-.60848136-.23260733-.63199848-.55996815zm6.29998493 7.8275547c-.01717701.2758804-.25180498.4873895-.52799873.4759729h-5.33598725c-.27923844.0159424-.51883501-.196822-.53599871-.4759729v-.2439861c.01926491-.2781231.25753263-.4897076.53599871-.475973h5.33598725c.27846608-.0137346.51673381.1978499.53599872.475973zm-5.77198621-3.5357989c-.31088183.0159446-.57667754-.2212963-.59599855-.5319697v-.1279927c.01932101-.3106734.28511672-.5479144.59599855-.5319698h6.79998377c.3108818-.0159446.5766776.2212964.5959986.5319698v.1279927c-.019321.3106734-.2851168.5479144-.5959986.5319697zm13.29596827-2.1558773c-.2655518.25688267-.6773874.28557456-.9759977.06799612l-.7999981-.55996815v5.12770833c.0162628 1.1938857-.8975383 2.195161-2.087995 2.2878698-1.1486792.0530819-2.1451347-.7858202-2.2885358-1.9266866s.6144493-2.2002518 1.7405371-2.4330654c.3894972-.0822106.794273-.0531016 1.1679972.0839952v-4.53574191c-.0056471-.0451549-.0056471-.09083737 0-.13599227.016262-.09797034.0545579-.19096966.1119998-.27198452v-.0279984c0-.02799842.0439999-.05599681.0679998-.07999546l.0519999-.03999771.0599998-.04799728.0599999-.03199818.0679998-.03599795.0639999-.01999887.0719998-.01999886h.3239992c.0802292.01913082.1561918.05304083.2239995.09999431l1.9999952 1.37192196c.1846353.11875259.3070099.31334993.3340492.53119762s-.0440482.43645497-.1940495.59673822zm-14.58396518-6.8396109h14.66396498c.34846.01821665.6465286-.24771034.6679984-.5959661-.0092805-.16770603-.0849442-.32481902-.2102806-.43664s-.2900336-.16915012-.4577178-.15932608h-14.66396498c-.16768418-.00982405-.33238145.04750509-.45771785.15932607-.12533639.11182099-.20100011.26893397-.21028056.43664001.02146977.34825577.31953841.61418276.66799841.5959661zm1.19599714-1.63990671h12.27197064c.1662308.01093535.3299329-.04504919.4546509-.15548624s.2000959-.26615638.2093475-.43248031v-.02799839c-.0235381-.34389329-.3198958-.60453104-.6639984-.58396679h-12.27197064c-.34410258-.02056425-.64046029.2400735-.66399841.58396679v.02799839c.00925163.16632393.08462954.32204326.20934756.43248031.12471803.11043705.28842011.16642159.45465085.15548624z" fill="#d1e0f3" fill-rule="evenodd"/></svg>

<?xml version="1.0" encoding="UTF-8"?>
<svg width="20px" height="20px" viewBox="0 0 20 20" version="1.1" xmlns="http://www.w3.org/2000/svg" xmlns:xlink="http://www.w3.org/1999/xlink">
    <title>编组</title>
    <g id="页面-1" stroke="none" stroke-width="1" fill="none" fill-rule="evenodd">
        <g id="我的-我喜欢" transform="translate(-178.000000, -738.000000)" fill="#D1E0F3">
            <g id="编组-8" transform="translate(0.000000, 728.000000)">
                <g id="编组" transform="translate(178.000000, 10.000000)">
                    <path d="M17.3319825,3.29295049 L2.66801752,3.29295049 C1.95903335,3.29295049 1.27920353,3.5751212 0.778627067,4.07717128 C0.278050599,4.57922136 -0.0021020035,5.25985591 1.18763052e-05,5.96879825 L1.18763052e-05,17.328152 C-0.00103801911,18.0364021 0.279584501,18.7160077 0.780045508,19.2171917 C1.28050652,19.7183758 1.95972803,20 2.66801752,20 L17.3319825,20 C18.040272,20 18.7194935,19.7183758 19.2199545,19.2171917 C19.7204155,18.7160077 20.001038,18.0364021 19.9999881,17.328152 L19.9999881,5.96879825 C20.002102,5.25985591 19.7219494,4.57922136 19.2213729,4.07717128 C18.7207965,3.5751212 18.0409667,3.29295049 17.3319825,3.29295049 Z M3.42801571,7.5447086 C3.4452739,7.21199311 3.72711095,6.95514296 4.06001419,6.96874137 L11.9999952,6.96874137 C12.3344265,6.95287903 12.6187483,7.21036396 12.6359937,7.5447086 L12.6359937,7.60070541 C12.6104174,7.92868061 12.3285875,8.17681917 11.9999952,8.16067356 L4.06001419,8.16067356 C3.73218505,8.17673187 3.45153283,7.92806623 3.42801571,7.60070541 L3.42801571,7.5447086 Z M9.72800064,15.3722633 C9.71082363,15.6481437 9.47619566,15.8596528 9.20000191,15.8482362 L3.86401466,15.8482362 C3.58477622,15.8641786 3.34517965,15.6514142 3.32801595,15.3722633 L3.32801595,15.1282772 C3.34728086,14.8501541 3.58554858,14.6385696 3.86401466,14.6523042 L9.20000191,14.6523042 C9.47846799,14.6385696 9.71673572,14.8501541 9.73600063,15.1282772 L9.72800064,15.3722633 Z M3.95601443,11.8364644 C3.6451326,11.852409 3.37933689,11.6151681 3.36001588,11.3044947 L3.36001588,11.176502 C3.37933689,10.8658286 3.6451326,10.6285876 3.95601443,10.6445322 L10.7559982,10.6445322 C11.06688,10.6285876 11.3326758,10.8658286 11.3519968,11.176502 L11.3519968,11.3044947 C11.3326758,11.6151681 11.06688,11.8524091 10.7559982,11.8364644 L3.95601443,11.8364644 Z M17.2519827,9.6805871 C16.9864309,9.93746977 16.5745953,9.96616166 16.275985,9.74858322 L15.4759869,9.18861507 L15.4759869,14.3163234 C15.4922497,15.5102091 14.5784486,16.5114844 13.3879919,16.6041932 C12.2393127,16.6572751 11.2428572,15.818373 11.0994561,14.6775066 C10.956055,13.5366402 11.7139054,12.4772548 12.8399932,12.2444412 C13.2294904,12.1622306 13.6342662,12.1913396 14.0079904,12.3284364 L14.0079904,7.79269449 C14.0023433,7.74753959 14.0023433,7.70185712 14.0079904,7.65670222 C14.0242524,7.55873188 14.0625483,7.46573256 14.1199902,7.3847177 L14.1199902,7.3567193 C14.1199902,7.32872088 14.1639901,7.30072249 14.18799,7.27672384 L14.2399899,7.23672613 L14.2999897,7.18872885 L14.3599896,7.15673067 L14.4279894,7.12073272 L14.4919893,7.10073385 L14.5639891,7.08073499 L14.8879883,7.08073499 C14.9682175,7.09986581 15.0441801,7.13377582 15.1119878,7.1807293 L17.111983,8.55265126 C17.2966183,8.67140385 17.4189929,8.86600119 17.4460322,9.08384888 C17.4730715,9.30169657 17.401984,9.52030385 17.2519827,9.6805871 L17.2519827,9.6805871 Z M2.66801752,2.8409762 L17.3319825,2.8409762 C17.6804425,2.85919285 17.9785111,2.59326586 17.9999809,2.2450101 C17.9907004,2.07730407 17.9150367,1.92019108 17.7897003,1.8083701 C17.6643639,1.69654912 17.4996667,1.63921998 17.3319825,1.64904402 L2.66801752,1.64904402 C2.50033334,1.63921997 2.33563607,1.69654911 2.21029967,1.80837009 C2.08496328,1.92019108 2.00929956,2.07730406 2.00001911,2.2450101 C2.02148888,2.59326587 2.31955752,2.85919286 2.66801752,2.8409762 L2.66801752,2.8409762 Z M3.86401466,1.20106949 L16.1359853,1.20106949 C16.3022161,1.21200484 16.4659182,1.1560203 16.5906362,1.04558325 C16.7153542,0.935146198 16.7907321,0.779426869 16.7999837,0.613102943 L16.7999837,0.585104547 C16.7764456,0.241211264 16.4800879,-0.0194264945 16.1359853,0.00113776454 L3.86401466,0.00113776454 C3.51991208,-0.0194264945 3.22355437,0.241211264 3.20001625,0.585104547 L3.20001625,0.613102943 C3.20926788,0.779426869 3.28464579,0.935146198 3.40936381,1.04558325 C3.53408184,1.1560203 3.69778392,1.21200484 3.86401466,1.20106949 L3.86401466,1.20106949 Z" id="形状"></path>
                </g>
            </g>
        </g>
    </g>
</svg>
